packages/core/src/svgs/networks/branded/stargaze.svg

<svg width="24" height="24" viewBox="0 0 24 24" fill="none" xmlns="http://www.w3.org/2000/svg">
<path d="M8.20098 9.76191C8.21745 9.71359 8.2213 9.66187 8.21219 9.61163C8.20306 9.5614 8.18129 9.51433 8.1489 9.47487C8.1165 9.43542 8.07457 9.40487 8.02709 9.38615C7.97959 9.36742 7.9281 9.36112 7.8775 9.36786L2.26069 10.1677C2.20563 10.175 2.15367 10.1975 2.1106 10.2325C2.06752 10.2676 2.03503 10.3139 2.01674 10.3663C1.99845 10.4187 1.99507 10.4752 2.00698 10.5295C2.01891 10.5838 2.04566 10.6336 2.08425 10.6735L6.08366 14.8024C6.11895 14.8409 6.16394 14.8695 6.21395 14.885C6.26396 14.9004 6.31719 14.9023 6.36814 14.8902C6.4191 14.8783 6.46594 14.8529 6.5038 14.8168C6.54168 14.7807 6.56922 14.735 6.58357 14.6848L8.20098 9.76191Z" fill="#E2BB5E"/>
<path d="M6.16032 21.3248C6.14156 21.3807 6.14001 21.4409 6.15588 21.4976C6.17173 21.5544 6.20428 21.605 6.24928 21.6431C6.29428 21.6811 6.34968 21.7048 6.40827 21.711C6.46686 21.7172 6.52597 21.7055 6.57791 21.6778L11.8301 19.1839C11.8688 19.1661 11.9109 19.1568 11.9536 19.1568C11.9962 19.1568 12.0384 19.1661 12.0771 19.1839L17.5645 21.6719C17.7998 21.7777 18.0527 21.5543 17.9703 21.3013C16.9352 18.1842 16.0001 15.1022 15.0002 11.9909C14.9822 11.938 14.9495 11.8913 14.906 11.8563C14.8624 11.8213 14.8098 11.7994 14.7542 11.7932C14.6987 11.7871 14.6425 11.7969 14.5923 11.8215C14.5421 11.846 14.5 11.8844 14.4709 11.9321L12.2536 15.908C12.2276 15.9552 12.1893 15.9946 12.1427 16.0215C12.096 16.0486 12.0428 16.0621 11.9888 16.0609H11.8948C11.8413 16.0605 11.7889 16.0455 11.7433 16.0175C11.6978 15.9895 11.6606 15.9496 11.636 15.9021L9.48335 11.9439C9.45878 11.8964 9.42159 11.8564 9.37603 11.8285C9.33047 11.8005 9.27804 11.7855 9.22458 11.7851H9.19517C9.13055 11.7839 9.06728 11.8039 9.01519 11.842C8.96309 11.8803 8.92506 11.9348 8.90698 11.9968C7.93564 15.0894 7.01995 18.1993 6.16032 21.3248Z" fill="url(#paint0_linear_382_11052)"/>
<path d="M17.376 14.5965C17.391 14.6456 17.4185 14.6899 17.456 14.7252C17.4933 14.7603 17.5393 14.7852 17.5893 14.797C17.6394 14.8089 17.6915 14.8075 17.7408 14.793C17.79 14.7784 17.8346 14.7513 17.8701 14.7141L21.9106 10.6735C22.0871 10.497 21.9871 10.2029 21.7401 10.1617L16.1527 9.37954C16.1023 9.37212 16.0509 9.37766 16.0032 9.39563C15.9556 9.41359 15.9132 9.4434 15.8803 9.48224C15.8474 9.52107 15.8248 9.56765 15.8148 9.6176C15.8049 9.66754 15.8078 9.71921 15.8233 9.76772L17.376 14.5965Z" fill="#DBA527"/>
<path d="M14.2473 9.27952C14.266 9.23581 14.2756 9.18881 14.2756 9.14131C14.2756 9.09381 14.266 9.0468 14.2473 9.00309C14.2363 8.98011 14.2264 8.95655 14.2179 8.93251L12.2359 2.50993C12.2199 2.44635 12.1833 2.38991 12.1316 2.34959C12.0798 2.30926 12.0161 2.28735 11.9507 2.28735C11.8851 2.28735 11.8214 2.30926 11.7697 2.34959C11.7181 2.38991 11.6813 2.44635 11.6654 2.50993L9.72446 8.93251L9.69509 9.02662C9.67176 9.10007 9.67588 9.1795 9.70689 9.25011L11.6301 13.6848C11.6831 13.7906 11.7889 13.8613 11.9006 13.8613H11.9713C12.0286 13.8614 12.0848 13.8448 12.1329 13.8135C12.181 13.7821 12.2188 13.7373 12.2418 13.6848L14.2415 9.27952H14.2473Z" fill="url(#paint1_linear_382_11052)"/>
<defs>
<linearGradient id="paint0_linear_382_11052" x1="-4.99719" y1="0.319614" x2="28.778" y2="0.319614" gradientUnits="userSpaceOnUse">
<stop offset="0.49" stop-color="#E2BB5E"/>
<stop offset="0.5" stop-color="#DBA527"/>
</linearGradient>
<linearGradient id="paint1_linear_382_11052" x1="2.0027" y1="10.7792" x2="21.9997" y2="10.7792" gradientUnits="userSpaceOnUse">
<stop offset="0.49" stop-color="#E2BB5E"/>
<stop offset="0.5" stop-color="#DBA527"/>
</linearGradient>
</defs>
</svg>

<svg xmlns="http://www.w3.org/2000/svg" width="24" height="24" fill="none" viewBox="0 0 24 24">
    <path fill="#E2BB5E" d="M8.201 9.762a.3.3 0 0 0-.324-.394l-5.616.8a.3.3 0 0 0-.177.506l4 4.128a.296.296 0 0 0 .42.015.3.3 0 0 0 .08-.132z"/>
    <path fill="url(#stargaze__a)" d="M6.16 21.325a.294.294 0 0 0 .418.353l5.252-2.494a.3.3 0 0 1 .247 0l5.487 2.488a.3.3 0 0 0 .406-.37c-1.035-3.118-1.97-6.2-2.97-9.311a.295.295 0 0 0-.53-.059l-2.216 3.976a.3.3 0 0 1-.265.153h-.094a.3.3 0 0 1-.259-.159l-2.153-3.958a.3.3 0 0 0-.258-.159h-.03a.296.296 0 0 0-.288.212 271 271 0 0 0-2.747 9.328"/>
    <path fill="#DBA527" d="M17.376 14.597a.295.295 0 0 0 .494.117l4.04-4.04a.302.302 0 0 0-.17-.512l-5.587-.782a.3.3 0 0 0-.33.388z"/>
    <path fill="url(#stargaze__b)" d="M14.247 9.28a.35.35 0 0 0 0-.277l-.03-.07-1.98-6.423a.294.294 0 0 0-.57 0L9.723 8.933l-.029.094a.32.32 0 0 0 .012.223l1.923 4.435a.31.31 0 0 0 .27.176h.071a.3.3 0 0 0 .27-.176l2-4.405z"/>
    <defs>
        <linearGradient id="stargaze__a" x1="-4.997" x2="28.778" y1=".32" y2=".32" gradientUnits="userSpaceOnUse">
            <stop offset=".49" stop-color="#E2BB5E"/>
            <stop offset=".5" stop-color="#DBA527"/>
        </linearGradient>
        <linearGradient id="stargaze__b" x1="2.003" x2="22" y1="10.779" y2="10.779" gradientUnits="userSpaceOnUse">
            <stop offset=".49" stop-color="#E2BB5E"/>
            <stop offset=".5" stop-color="#DBA527"/>
        </linearGradient>
    </defs>
</svg>
